X:151
M:4/4
L:1/4
K:G
G2 (B d) | (G F) (E D) | (E3/2 F/ G) F/E/ | (D3/2 C/) B,2 | D3 D | G2 A2 | (B d) (c B) | (B2 A2) | G2 (B d) | (G F) (E D) | (E3/2 F/ G) F/E/ | (D3/2 C/) B,2 | D3 D | G2 A2 | (B d) (c B) | (B2 A2) | (A3/2 B/ A) B | c2 B2 | (G3/2 A/ G) c | (B A) G2 | (B3/2 c/ B) d | (c B) A2 | !sintro!G2 (A B) | D2 c2 | B2 A2 | G4 !eintro!|]
